public/Pyth Logomark_Light.svg

<svg fill="none" height="1474" viewBox="0 0 1176 1474" width="1176" xmlns="http://www.w3.org/2000/svg"><g fill="#e6dafe"><path d="m734.994 589.59c0 81.401-65.821 147.402-147 147.402v147.401c162.358 0 294-132.001 294-294.803 0-162.801-131.642-294.803-294-294.803-53.521 0-103.785 14.334-147 39.467-87.895 50.934-147 146.202-147 255.336v737.01l132.173 132.53 14.827 14.87v-884.41c0-81.401 65.821-147.401 147-147.401s147 66 147 147.401z"/><path d="m588 0c-107.109 0-207.502 28.7336-294 78.9342-55.383 32.0668-104.981 72.9338-147 120.7348-91.4844 103.934-147 240.469-147 389.937v442.204l147 147.4v-589.604c0-130.934 56.779-248.602 147-329.603 42.418-38.001 92.216-68.001 147-87.334 45.942-16.401 95.474-25.267 147-25.267 243.537 0 441 198.002 441 442.204 0 244.203-197.463 442.204-441 442.204v147.4c324.783 0 588-264 588-589.604 0-325.603-263.217-589.606-588-589.606z"/></g></svg>

<svg width="1176" height="1474" viewBox="0 0 1176 1474" fill="none" xmlns="http://www.w3.org/2000/svg">
<path d="M734.994 589.59C734.994 670.991 669.173 736.992 587.994 736.992V884.393C750.352 884.393 881.994 752.392 881.994 589.59C881.994 426.789 750.352 294.787 587.994 294.787C534.473 294.787 484.209 309.121 440.994 334.254C353.099 385.188 293.994 480.456 293.994 589.59V1326.6L426.167 1459.13L440.994 1474V589.59C440.994 508.189 506.815 442.189 587.994 442.189C669.173 442.189 734.994 508.189 734.994 589.59Z" fill="#E6DAFE"/>
<path d="M588 0C480.891 0 380.498 28.7336 294 78.9342C238.617 111.001 189.019 151.868 147 199.669C55.5156 303.603 0 440.138 0 589.606V1031.81L147 1179.21V589.606C147 458.672 203.779 341.004 294 260.003C336.418 222.002 386.216 192.002 441 172.669C486.942 156.268 536.474 147.402 588 147.402C831.537 147.402 1029 345.404 1029 589.606C1029 833.809 831.537 1031.81 588 1031.81V1179.21C912.783 1179.21 1176 915.21 1176 589.606C1176 264.003 912.783 0 588 0Z" fill="#E6DAFE"/>
</svg>
